assets/sonr-icons/noble.svg

<svg xmlns="http://www.w3.org/2000/svg" width="24" height="24" fill="none" viewBox="0 0 24 24"><path fill="#000" d="M20.5599 14.305C20.5619 15.127 20.3999 15.941 20.0859 16.7C19.7719 17.459 19.3119 18.149 18.7299 18.729C18.1489 19.31 17.4589 19.772 16.6999 20.085C15.9419 20.399 15.1309 20.561 14.3099 20.561H14.2799C12.9609 20.561 11.6499 20.13 10.5889 19.349C9.80194 18.765 9.16294 18.005 8.72194 17.13C8.28094 16.255 8.05094 15.289 8.04994 14.308V9.696C8.04994 9.48 8.09194 9.265 8.17394 9.066C8.25594 8.867 8.37794 8.685 8.53194 8.533C8.68394 8.38 8.86594 8.259 9.06494 8.177C9.26394 8.095 9.47794 8.052 9.69394 8.052C9.90995 8.052 10.1239 8.095 10.3229 8.178C10.5219 8.261 10.7029 8.382 10.8549 8.535C11.1649 8.846 11.3369 9.258 11.3369 9.697V14.308C11.3359 14.698 11.4129 15.083 11.5629 15.443C11.7129 15.803 11.9319 16.129 12.2089 16.404C12.6239 16.818 13.1519 17.099 13.7269 17.212C14.3029 17.327 14.8949 17.268 15.4389 17.043C15.9809 16.819 16.4429 16.439 16.7689 15.952C17.0969 15.464 17.2709 14.895 17.2719 14.307V5.085C17.2709 4.869 17.3139 4.655 17.3959 4.456C17.4779 4.257 17.5999 4.075 17.7529 3.923C17.9439 3.732 18.1799 3.591 18.4379 3.513C18.6959 3.435 18.9709 3.422 19.2349 3.474C19.4999 3.527 19.7479 3.644 19.9569 3.815C20.1659 3.986 20.3289 4.207 20.4329 4.456C20.5159 4.656 20.5579 4.868 20.5579 5.085V14.306L20.5559 14.305H20.5599ZM7.59894 7.597C7.32194 7.872 7.10294 8.198 6.95394 8.559C6.80494 8.92 6.72794 9.305 6.72894 9.695V18.916C6.72994 19.132 6.68694 19.346 6.60494 19.545C6.52294 19.744 6.40094 19.926 6.24694 20.078C5.62594 20.7 4.54294 20.7 3.92094 20.078C3.76794 19.926 3.64694 19.744 3.56394 19.545C3.48094 19.346 3.43894 19.132 3.43894 18.916V9.696C3.44094 8.196 3.97994 6.747 4.95994 5.611C5.53794 4.942 6.25094 4.403 7.05294 4.03C7.85494 3.657 8.72594 3.458 9.60994 3.446C10.4939 3.434 11.3709 3.609 12.1819 3.961C12.9929 4.313 13.7209 4.832 14.3169 5.485L14.3259 5.474L14.3349 5.507C14.9529 6.189 15.4119 7.001 15.6809 7.881L15.7059 7.965C15.8699 8.528 15.9519 9.11 15.9529 9.694V14.304C15.9529 14.629 15.8559 14.947 15.6749 15.217C15.4939 15.487 15.2379 15.698 14.9379 15.823C14.7419 15.905 14.5349 15.943 14.3269 15.945V15.948C14.3189 15.948 14.3109 15.946 14.3029 15.946C14.1979 15.946 14.0929 15.939 13.9889 15.918C13.9289 15.905 13.8699 15.889 13.8119 15.869V15.861C13.7719 15.848 13.7319 15.842 13.6929 15.826C13.3929 15.701 13.1359 15.491 12.9559 15.22C12.7759 14.949 12.6789 14.632 12.6779 14.307V10.132H12.6769V9.694C12.6759 9.105 12.5009 8.53 12.1719 8.042C11.8429 7.554 11.3779 7.174 10.8329 6.951C10.4719 6.799 10.0849 6.724 9.69394 6.728C9.30494 6.727 8.91794 6.804 8.55794 6.953C8.19794 7.102 7.87194 7.32 7.59694 7.596V7.595L7.59894 7.597ZM21.0119 2.988C20.7369 2.712 20.4099 2.493 20.0509 2.344C19.6919 2.195 19.3059 2.118 18.9159 2.118C18.5269 2.118 18.1399 2.195 17.7809 2.345C17.4219 2.495 17.0949 2.714 16.8209 2.99C16.5459 3.265 16.3269 3.591 16.1779 3.951C16.0289 4.311 15.9529 4.696 15.9529 5.084V5.417C15.0089 4.039 13.6359 3.01 12.0469 2.491C10.4579 1.972 8.74294 1.993 7.16794 2.549C5.68994 3.07 4.41194 4.039 3.50894 5.319C2.60194 6.597 2.11594 8.125 2.11694 9.693V18.914C2.11694 19.706 2.42594 20.451 2.98594 21.011C3.25994 21.288 3.58794 21.507 3.94794 21.656C4.30794 21.805 4.69394 21.882 5.08394 21.88C5.47394 21.881 5.85894 21.805 6.21894 21.656C6.57894 21.507 6.90594 21.288 7.18094 21.012C7.45694 20.738 7.67694 20.411 7.82594 20.051C7.97495 19.691 8.05194 19.305 8.04994 18.915V18.584C8.99495 19.961 10.3669 20.988 11.9549 21.507C13.5429 22.026 15.2569 22.004 16.8319 21.449C18.3089 20.928 19.5879 19.96 20.4899 18.679C21.3959 17.402 21.8819 15.874 21.8809 14.307V5.082C21.8809 4.693 21.8049 4.307 21.6549 3.947C21.5049 3.587 21.2869 3.261 21.0109 2.986H21.0129L21.0119 2.988Z"/></svg>

<svg xmlns="http://www.w3.org/2000/svg" width="24" height="24" fill="none"><path fill="currentColor" d="M20.56 14.305a6.23 6.23 0 0 1-1.83 4.424 6.241 6.241 0 0 1-4.42 1.832h-.03a6.27 6.27 0 0 1-3.691-1.212 6.29 6.29 0 0 1-2.54-5.041V9.696c0-.216.043-.431.125-.63s.204-.381.358-.533a1.653 1.653 0 0 1 1.791-.355c.199.083.38.204.532.357.31.311.482.723.482 1.162v4.611a2.953 2.953 0 0 0 .872 2.096c.415.414.943.695 1.518.808a2.962 2.962 0 0 0 3.042-1.26 2.95 2.95 0 0 0 .503-1.645V5.085a1.63 1.63 0 0 1 1.166-1.572 1.66 1.66 0 0 1 1.519.302 1.65 1.65 0 0 1 .6 1.27v9.221l-.001-.001zM7.599 7.597a2.955 2.955 0 0 0-.87 2.098v9.221a1.63 1.63 0 0 1-.482 1.162c-.621.622-1.704.622-2.326 0a1.64 1.64 0 0 1-.482-1.162v-9.22a6.248 6.248 0 0 1 6.171-6.25 6.25 6.25 0 0 1 4.707 2.039l.009-.011.009.033a6.3 6.3 0 0 1 1.346 2.374l.025.084c.164.563.246 1.145.247 1.729v4.61a1.653 1.653 0 0 1-1.015 1.519c-.196.082-.403.12-.611.122v.003l-.024-.002q-.158.002-.314-.028a2 2 0 0 1-.177-.049v-.008c-.04-.013-.08-.019-.12-.035a1.64 1.64 0 0 1-.736-.606 1.66 1.66 0 0 1-.278-.913v-4.175h-.001v-.438a2.96 2.96 0 0 0-1.844-2.743 2.9 2.9 0 0 0-1.14-.223 2.96 2.96 0 0 0-2.096.868v-.001zm13.413-4.609a2.958 2.958 0 0 0-4.834.963c-.15.36-.225.745-.225 1.133v.333a7.59 7.59 0 0 0-8.785-2.868 7.55 7.55 0 0 0-3.66 2.77 7.55 7.55 0 0 0-1.391 4.374v9.221c0 .792.309 1.537.869 2.097a2.93 2.93 0 0 0 2.098.869 2.95 2.95 0 0 0 2.097-.868 2.94 2.94 0 0 0 .869-2.097v-.331a7.584 7.584 0 0 0 8.782 2.865 7.54 7.54 0 0 0 3.658-2.77 7.55 7.55 0 0 0 1.39-4.372V5.082a2.95 2.95 0 0 0-.87-2.096h.003z"/></svg>
